packages/ui-icons/svg/Solid/next-unread.svg

<svg viewBox="0 0 1920 1920" version="1.1" xmlns="http://www.w3.org/2000/svg">
    <path d="M0,524.663558 L878.039001,1337.09375 L1470.49316,779.857699 C1519.09634,804.87243 1572.41721,820.342067 1628.70036,822.865483 C1634.51519,823.08491 1640.11059,823.194624 1645.92541,823.194624 C1684.21551,823.194624 1720.53075,816.063231 1755.41972,805.640427 L1755.41972,805.640427 L1755.41972,1663.27267 L1330.60815,1171.42601 L1247.66457,1243.06908 L1690.46919,1755.76135 L64.9505296,1755.76135 L507.755154,1243.06908 L424.811572,1171.42601 L0,1663.27267 L0,524.663558 Z M1278.97686,329.559627 C1270.19977,359.182335 1263.50723,389.792466 1262.19066,422.158018 C1257.58269,524.630644 1293.12994,622.71472 1362.46902,698.417196 C1367.84499,704.341737 1374.3181,708.730287 1380.02321,714.215973 L1380.02321,714.215973 L877.424604,1187.08216 L0.043885493,375.090826 L0.043885493,329.559627 Z M1645.55239,165 C1649.6118,165 1653.78092,165.109714 1657.95004,165.219427 C1809.24528,172.021679 1926.41954,300.057605 1919.72701,451.462555 C1913.14418,598.588671 1791.80079,713.568662 1645.99124,713.568662 C1641.93183,713.568662 1637.653,713.458949 1633.48388,713.239521 C1482.18864,706.546983 1365.01437,578.401344 1371.81663,426.996393 C1378.28974,279.870278 1499.74284,165 1645.55239,165 Z" stroke="none" stroke-width="1" fill-rule="evenodd"/>
</svg>

<svg viewBox="0 0 1920 1920" version="1.1" xmlns="http://www.w3.org/2000/svg">
    <path d="M1628.7 822.865c5.815.22 11.41.33 17.225.33 38.29 0 74.606-7.132 109.495-17.555v857.633l-424.812-491.847-82.943 71.643 442.804 512.692H64.951l442.804-512.692-82.943-71.643L0 1663.273V524.663l878.039 812.43 592.454-557.235c48.603 25.014 101.924 40.484 158.207 43.007zm-248.677-108.649l-502.598 472.866L.044 375.091V329.56h1278.933c-8.777 29.622-15.47 60.232-16.786 92.598-4.608 102.473 30.939 200.557 100.278 276.26 5.376 5.924 11.85 10.312 17.554 15.798zm277.927-548.997c151.295 6.803 268.47 134.839 261.777 286.244-6.583 147.126-127.926 262.106-273.736 262.106-4.06 0-8.338-.11-12.507-.33-151.295-6.692-268.47-134.838-261.667-286.243C1378.29 279.87 1499.743 165 1645.552 165c4.06 0 8.229.11 12.398.22z" stroke="none" stroke-width="1" fill-rule="evenodd"/>
</svg>
